content/images/project/rocketbot-ui.svg

<svg width="36" height="36" viewBox="0 0 36 36" fill="none" xmlns="http://www.w3.org/2000/svg">
<path d="M0 4C0 1.79086 1.79086 0 4 0H32C34.2091 0 36 1.79086 36 4V32C36 34.2091 34.2091 36 32 36H4C1.79086 36 0 34.2091 0 32V4Z" fill="#3987CD"/>
<path d="M18.5 7C18.5 7 24.4375 9.3 24.4375 18.5C24.4375 22.065 23.5469 25.1125 22.4544 27.5045C22.0625 28.3325 21.2194 28.85 20.2812 28.85H16.7188C15.7806 28.85 14.9375 28.3325 14.5456 27.5045C13.465 25.1125 12.5625 22.065 12.5625 18.5C12.5625 9.3 18.5 7 18.5 7ZM18.5 18.5C19.8063 18.5 20.875 17.465 20.875 16.2C20.875 14.935 19.8063 13.9 18.5 13.9C17.1937 13.9 16.125 14.935 16.125 16.2C16.125 17.465 17.1937 18.5 18.5 18.5Z" fill="white"/>
<path d="M28.5 30.0001L23.9163 28.2176C24.7475 26.4581 25.3412 24.6411 25.7094 22.7896L28.5 30.0001ZM13.0838 28.2176L8.5 30.0001L11.2906 22.7896C11.6587 24.6411 12.2525 26.4581 13.0838 28.2176Z" fill="white" fill-opacity="0.5"/>
</svg>

<svg xmlns="http://www.w3.org/2000/svg" width="36" height="36" fill="none" viewBox="0 0 36 36"><path fill="#3987CD" d="M0 4a4 4 0 0 1 4-4h28a4 4 0 0 1 4 4v28a4 4 0 0 1-4 4H4a4 4 0 0 1-4-4V4Z"/><path fill="#fff" d="M18.5 7s5.938 2.3 5.938 11.5c0 3.565-.891 6.613-1.984 9.005-.392.828-1.235 1.345-2.173 1.345H16.72c-.938 0-1.782-.518-2.173-1.346-1.081-2.392-1.983-5.439-1.983-9.004C12.563 9.3 18.5 7 18.5 7Zm0 11.5c1.306 0 2.375-1.035 2.375-2.3s-1.069-2.3-2.375-2.3-2.375 1.035-2.375 2.3 1.069 2.3 2.375 2.3Z"/><path fill="#fff" fill-opacity=".5" d="m28.5 30-4.584-1.782a23.337 23.337 0 0 0 1.793-5.428L28.5 30Zm-15.416-1.782L8.5 30l2.79-7.21a23.328 23.328 0 0 0 1.794 5.428Z"/></svg>
